X:511
T:Woodstock Hornpipe
C:Bill Monroe
N:Transcribed by Vance Henry
R:bluegrass
L:1/8
Q:1/4=200
M:4/4
K:A
|: "A"A2 A2 cB AB | c=c ^c=c ^ce2e | fe cB AF EF | Ac BA "E"[B4G4] | "A"A2 A2 cB AB | 
c=c ^c=c ^ce2e | fe cB AF EF | "E"AA =c^c "A"A4 :|3 "D"D2 F2 AF DB, | "A"A,B, CE FE CF | 
"E"EF GB cB GB | "A"AB cd e4 | "D"D2 F2 AF DB, | "A"A,B, CE FE CF | "E"EF GB cB GB | 
"A"A8 | "D"d2 f2 af dB | "A"AB cd ec AF | "E"EF GB cB GB | "A"AB cd e4 | "D"d2 f2 af dB | 
"A"AB cd ec AF | "E"EF GB cB GB | "A"A8 | 


